icons/svg/checkbox-multiple-marked.svg

﻿<?xml version="1.0" encoding="utf-8"?>
<!DOCTYPE svg PUBLIC "-//W3C//DTD SVG 1.1//EN" "http://www.w3.org/Graphics/SVG/1.1/DTD/svg11.dtd">
<svg xmlns="http://www.w3.org/2000/svg" xmlns:xlink="http://www.w3.org/1999/xlink" version="1.1" baseProfile="full" width="24" height="24" viewBox="0 0 24.00 24.00" enable-background="new 0 0 24.00 24.00" xml:space="preserve">
	<path fill="#000000" fill-opacity="1" stroke-width="0.2" stroke-linejoin="round" d="M 21.9993,15.9981C 21.9993,17.1031 21.1033,17.9981 19.9993,17.9981L 7.99939,17.9981C 6.89439,17.9981 5.9994,17.1031 5.9994,15.9981L 5.99928,3.99808C 5.99928,2.89308 6.89427,1.99809 7.99927,1.99809L 20,2.00001C 21.1046,2.00001 22,2.89543 22,4L 21.9993,15.9981 Z M 15.9999,20L 15.9999,22L 4.00002,22C 2.89502,22 2.00002,21.105 2.00002,20L 1.99996,7.00002L 3.99995,7.00002L 4.00002,20.001L 15.9999,20 Z M 12.9999,14L 19.9999,7.00001L 18.5859,5.58602L 12.9999,11.172L 9.91391,8.08601L 8.49991,9.50001L 12.9999,14 Z "/>
</svg>

<svg xmlns="http://www.w3.org/2000/svg" version="1.1" baseProfile="full" width="24" height="24" viewBox="0 0 24.00 24.00" xml:space="preserve"><path fill="#000" fill-opacity="1" stroke-width=".2" stroke-linejoin="round" d="M22 15.998c0 1.105-.897 2-2 2H8c-1.106 0-2-.895-2-2v-12c0-1.105.894-2 2-2L20 2c1.105 0 2 .895 2 2v11.998zM16 20v2H4c-1.105 0-2-.895-2-2V7h2v13h12zm-3-6l7-7-1.414-1.414L13 11.172 9.914 8.086 8.5 9.5 13 14z"/></svg>
